X: 14417
T: Galway Races
R: jig
M: 6/8
K: Aminor
|:E|E2G G2A|G2E E2D|E2G G2A|G3 E2D|
E2G A2B|c2c B2A|G2A B2d|c2c2cd|
e2e d2c|B2d c2B|A2c B2A|G2E2ED|
E2G G2A|G2E E2D|E2A G2B|A2A2cd|
e3d2c|d3c2B|AAAA2G|(A3A2):|

